X: 3417
T: GLENGARRY'S MARCH
%R: march
B: James Kerr "Merry Melodies" v.3 p.46 #417
Z: 2016 John Chambers <jc:trillian.mit.edu>
N: The 16-bar 2nd strain is 8 bars written out twice.
M: 2/4
L: 1/16
K: A
(ed) |\
c2A2A2 (Bc) | d2B2B2 (ed) | c2A2A2 (Bc) | dcBA =G2(ed) |\
c2A2A2 (Bc) | d2B2B2 (ed) | c2Ac B2=GB | A4- A2 :|\
(ed) |\
c2e2e2=g2 | B=GBc d2(cB) | c2e2 e2(fg) | agfe a2(ed) |
c2e2e2=g2 | B=GBc d2(ed) | c2Ac B2=GB | A4- A2 ed |\
c2e2e2=g2 | B=GBc d2(cB) | c2e2e2 (fg) | agfe a2(ed) |\
c2e2e2=g2 | B=GBc d2(ed) | c2Ac B2=GB | A4- A2 |]

%%sep 1 1 500
%%sep 1 1 500

